X: 1
T: City Blooming, The
M: 4/4
L: 1/8
R: reel
K: Dmaj
DE (3FED EFGE|FAce dBAF|EBBA Bged|cedB cAGE|
DFFD EFGE|FAce d2cd|gfed BedB|1(3cBA GE D4  :|2 (3cBA GE D2fg||
|:a^gab ad (3ddd|fage d2cd|Bee^d efga|bgfd efge|
[1a^gab adde|fage d2ef|gfed BedB|(3cBA GE D2aa:|
[2[D3d3]D EFGE|FAce d2cd|gfed BedB |(3cBA GE D4 |
